X:71
T:Lummdon. LIT.071
M:9/8
Q:3/8=115
L:1/8
B:Wm. Litten MS, 1802
Z:Village Music Project 2017 Anne Wride
K:G
d2g "_as written"|: gdB BGB BGB | d2c BAB BAB | dcB G2B BAB | cBc A2B cBA :|
|: G2g gdB gdB | G2g gdB cBA | G2g gdB gdB | cBc A2B cBA :|

